X: 23532
T: Lieutenant Maguire's
R: jig
M: 6/8
K: Edorian
B|EEE[B2G2]A|B2A B^cd|DDD [F2A2]G|FAA AFD|
EEE[B2G2]A|B2A B^cd|AAA B2A|GED E2:|
|:F|G2A BGG|dGG BGG|G2A BGG|AFD DEF|
G2A BGG|dGG BGG|AAA B2A|GED E2:|
|:B|~E3 G2A|B2A B^cd|~D3 F2G|FAA AFD|
~E3 G2A|B2A B^cd|AAA B2A|GED E2:|
|:B|EEE EBE|EdE BEE|DDD DAD|DdD ADD|
EEE EBE|EdE BEE|AAA B2A|GED E2:|

